!!!!SEGMENT: pl-kk--kk-i-161--001_anonim--gaudeamus-omnes-in-domino.krn
!!!cenid: 17xx:2601
!!!COM: Anonim
!!!COM-rismID: pe30004985
!!!CDT:
!!!CNT:
!!!OTL: Gaudeamus omnes in Domino
!!!PDT:
!!!AGN: Sacred
!!!YEC: Copyright 2022 Narodowy Instytut Fryderyka Chopina (https://polishscores.org)
!!!YEM: License CC-BY-4.0 (https://creativecommons.org/licenses/by/4.0)
!!!SMS-siglum: PL-Kk
!!!SMS-shelfmark: Kk.I.161
!!!SMS-variant: Baſso. PL-Kk Kk.I.161:7-8
!!!SMS-altvar: Baſso. PL-Kk Kk.I.161:9-10
!!!SMS-shelfwork: 001 W
!!!NIFC-rismSourceID: 1001150820
!!!NIFC-rismChildID: 1001150823
!!!NIFC-islandoraID: pl-kk:3762
!!!URL-pdf-islandora: https://repozytorium.nifc.pl/islandora/object/pl-kk:3762/datastream/PDF/view
!!!URL-scan: https://polish.musicsources.pl/pl/lokalizacje/galeria/rekopisy/5789/1 @EN{Scan on Polish Music Sources Website} @PL{Skany w portalu Dziedzictwo Muzyki Polskiej w otwartym dostępie}
!!!IIIF:
!!!ONB-nifc: UWAGA: Dwa odpisy partii Bassus - należy wykorzystać pierwszy, w formacie leżącym
!!!AIN: 1 alto 1 bass 2 tenor
!!!key: d:dor
**kern	**text	**kern	**text	**kern	**text	**kern	**text	**text
*part4	*part4	*part3	*part3	*part2	*part2	*part1	*part1	*part1
*staff4	*staff4	*staff3	*staff3	*staff2	*staff2	*staff1	*staff1	*staff1
*ICvox	*	*ICvox	*	*ICvox	*	*ICvox	*	*
*Ibass	*	*Itenor	*	*Itenor	*	*Ialto	*	*
*I"Baſso.	*	*I"Tenore Chorali	*	*I"Tenore 1mo.	*	*I"Alto.	*	*
*I'B	*	*I'T chorali	*	*I'T 1	*	*I'A	*	*
*clefF4	*	*clefC4	*	*clefC4	*	*clefC3	*	*
*k[]	*	*k[]	*	*k[]	*	*k[]	*	*
*d:dor	*	*d:dor	*	*d:dor	*	*d:dor	*	*
*M4/2	*	*M4/2	*	*M4/2	*	*M4/2	*	*
*met(C|)	*	*met(C|)	*	*met(C|)	*	*met(C|)	*	*
=1-	=1-	=1-	=1-	=1-	=1-	=1-	=1-	=1-
*2\right	*	*2\right	*	*2\right	*	*2\right	*	*
!!LO:TX:t=P:problem:oddech/cezura na różnej wysokości
2.C/	Gau-	1C	Gau-	1.G	Gau-	1c	Gau-	.
4BB/	.	.	.	.	.	.	.	.
2GG/	-de-	1D	.	.	.	2B/	.	.
!LO:TX:t=P:problem:kreska pseudotaktowa	!	!	!	!	!	!	!	!
2AA/	-a-	.	.	4F/	.	1A	-de-	.
!	!	!	!	!LO:TX:t=P:problem:kreska pseudotaktowa	!	!	!	!
.	.	.	.	4E/	-de-	.	.	.
=2-	=2-	=2-	=2-	=2-	=2-	=2-	=2-	=2-
(>1BB	-mus	1D	-de-	2D/	-a-	.	.	.
!	!	!	!	!	!	!LO:TX:t=P:problem:kreska pseudotaktowa	!	!
.	.	.	.	2G/	.	2G/	-a-	.
2AA,/)	.	1A	-a-	2E/	.	2.c/	.	.
2.AA/	gau-	.	.	1A\	.	.	.	.
.	.	.	.	.	.	4d/	.	.
=3-	=3-	=3-	=3-	=3-	=3-	=3-	=3-	=3-
!	!	!	!	!	!	!LO:TX:t=P:problem:kreska pseudotaktowa	!	!
.	.	1c	.	.	.	1e	.	.
4BB/	.	.	.	.	.	.	.	.
!LO:TX:t=P:problem:kreska pseudotaktowa	!	!	!	!LO:TX:t=P:problem:kreska pseudotaktowa	!	!	!	!
2C/	-de-	.	.	2G/	.	.	.	.
!	!	!LO:TX:t=P:problem:kreska pseudotaktowa	!	!	!	!	!	!
2D\	.	1A	-mus	2d\	.	2f\	.	.
2E\	-a-	.	.	4c\	.	1e	.	.
.	.	.	.	4B\	.	.	.	.
=4-	=4-	=4-	=4-	=4-	=4-	=4-	=4-	=4-
!LO:TX:t=P:problem:kreska pseudotaktowa	!	!	!	!	!	!	!	!
1F	.	1A	o-	2A\	mus	.	.	.
!	!	!	!	!	!	!LO:TX:t=P:problem:kreska pseudotaktowa	!	!
.	.	.	.	1d	o-	2d\	.	.
2E\	-mus	1G	.	.	.	2e,\	-mus	.
!	!	!	!	!LO:TX:t=P:problem:kreska pseudotaktowa	!	!	!	!
2E,\	.	.	.	2c\	.	1g	o-	[[gau-
=5-	=5-	=5-	=5-	=5-	=5-	=5-	=5-	=5-
1D	om-	1A	.	2.d\	.	.	.	.
.	.	.	.	.	.	2f\	.	.
.	.	.	.	4c\	.	.	.	.
!LO:TX:t=P:problem:kreska pseudotaktowa	!	!LO:TX:t=P:problem:kreska pseudotaktowa	!	!	!	!	!	!
1E	-nes	1G	-mnes	2B\	.	2g\	.	-de-
.	.	.	.	1c\	.	2e\	-mnes	-a-
=6-	=6-	=6-	=6-	=6-	=6-	=6-	=6-	=6-
!	!	!	!	!	!	!LO:TX:t=P:problem:kreska pseudotaktowa	!	!
1D	.	1F	in	.	.	1f	.	-mus]]
!	!	!	!	!LO:TX:t=P:problem:kreska pseudotaktowa	!	!	!	!
.	.	.	.	2B\	-mnes	.	.	.
!	!	!LO:TX:t=P:problem:kreska pseudotaktowa	!	!	!	!	!	!
2.C/	in	1G,	.	1c	o-	2.e\	in	.
!LO:TX:t=P:problem:kreska pseudotaktowa	!	!	!	!	!	!	!	!
4D/	.	.	.	.	.	4f\	.	.
=7-	=7-	=7-	=7-	=7-	=7-	=7-	=7-	=7-
!	!	!LO:N:vis=1	!	!LO:TX:t=P:problem:kreska pseudotaktowa	!	!	!	!
2E/	Do-	0B	Do-	1B	-mnes	2g\	Do-	.
4D/	.	.	.	.	.	4f\	.	.
!	!	!	!	!	!	!LO:TX:t=P:problem:kreska pseudotaktowa	!	!
4C/	.	.	.	.	.	4e\	.	.
!LO:TX:t=P:problem:kreska pseudotaktowa	!	!	!	!	!	!	!	!
1BB	-mi-	.	.	2r	.	1d	.	.
.	.	.	.	2G/	in	.	.	.
=8-	=8-	=8-	=8-	=8-	=8-	=8-	=8-	=8-
2AA/	-no	1c	.	2.A/	Do-	2.c\	.	.
2.A\	in	.	.	.	.	.	.	.
!	!	!	!	!LO:TX:t=P:problem:kreska pseudotaktowa	!	!LO:TX:t=P:problem:kreska pseudotaktowa	!	!
.	.	.	.	4B\	.	4d\	-mi-	.
*	*	*	*	*custos:c	*	*	*	*
!	!	!	!	!LO:LB:g=original	!	!	!	!
.	.	1A	.	2c\	.	2e\	-no	.
4G\	.	.	.	.	.	.	.	.
4F\	.	.	.	2.d\	.	1f\	in	.
!LO:TX:t=P:problem:kreska pseudotaktowa	!	!	!	!	!	!	!	!
4E\	.	.	.	.	.	.	.	.
=9-	=9-	=9-	=9-	=9-	=9-	=9-	=9-	=9-
2D\	Do-	1A	-mi-	.	.	.	.	.
.	.	.	.	4A\	.	.	.	.
!	!	!	!	!	!	!LO:TX:t=P:problem:kreska pseudotaktowa	!	!
2F\	.	.	.	1d	.	2d\	Do-	.
!LO:TX:t=P:problem:kreska pseudotaktowa	!	!	!	!	!	!	!	!
1E	-mi-	1G	-no	.	.	2e\	.	.
.	.	.	.	2c\	-mi-	1g\	.	.
*custos:D	*	*	*	*	*	*	*	*
!LO:LB:g=original	!	!	!	!	!	!	!	!
=10-	=10-	=10-	=10-	=10-	=10-	=10-	=10-	=10-
!LO:TX:t=P:problem:kreska pseudotaktowa	!	!LO:TX:t=P:problem:kreska pseudotaktowa	!	!LO:TX:t=P:problem:kreska pseudotaktowa	!	!LO:TX:t=P:problem:kreska pseudotaktowa	!	!
1D	-no	1A	.	0d	-no	.	.	.
.	.	.	.	.	.	2f\	-mi-	.
!	!	!	!	!	!	!LO:TX:t=P:problem:kreska pseudotaktowa	!	!
2r	.	1B	.	.	.	1g	-no	.
1G\	in	.	.	.	.	.	.	.
!	!	!	!	!	!	!LO:LB:g=original	!	!
=11-	=11-	=11-	=11-	=11-	=11-	=11-	=11-	=11-
.	.	1A	.	2r	.	2r	.	.
!LO:TX:t=P:problem:kreska pseudotaktowa	!	!	!	!	!	!	!	!
2F\	.	.	.	2.d\	in	2a\	in	.
4G\	Do-	1B	.	.	.	2.g\	Do-	.
4F\	.	.	.	4c\	.	.	.	.
4E\	.	.	.	4B\	.	.	.	.
!LO:TX:t=P:problem:kreska pseudotaktowa	!	!	!	!LO:TX:t=P:problem:kreska pseudotaktowa	!	!LO:TX:t=P:problem:kreska pseudotaktowa	!	!
4D\	.	.	.	4A\	.	4f\	.	.
=12-	=12-	=12-	=12-	=12-	=12-	=12-	=12-	=12-
2C/	.	1c	.	1G	Do-	1e	-mi-	.
2C/	.	.	.	.	.	.	.	.
!LO:TX:t=P:problem:kreska pseudotaktowa	!	!LO:TX:t=P:problem:kreska pseudotaktowa	!	!	!	!	!	!
1D	-mi-	1A	.	2.F/	.	2d,\	-no	.
!	!	!	!	!	!	!LO:TX:t=P:problem:kreska pseudotaktowa	!	!
.	.	.	.	.	.	[y2f\	di-	.
.	.	.	.	4E/	-mi-	.	.	.
=13-	=13-	=13-	=13-	=13-	=13-	=13-	=13-	=13-
!LO:TX:t=P:problem:kreska pseudotaktowa	!	!LO:TX:t=P:problem:kreska pseudotaktowa	!	!	!	!	!	!
!	!	!	!	!	!	!LO:N:xstem:cue	!	!
0D	-no	1A	Di-	2D,/	-no	4f\]	.	.
.	.	.	.	.	.	4e\	.	.
!	!	!	!	!LO:TX:t=P:problem:kreska pseudotaktowa	!	!	!	!
.	.	.	.	2d\	di-	4d\	.	.
!	!	!	!	!	!	!LO:TX:t=P:problem:kreska pseudotaktowa	!	!
.	.	.	.	.	.	4c\	.	.
!	!	!LO:TX:t=P:problem:kreska pseudotaktowa	!	!LO:TX:t=P:problem:kreska pseudotaktowa	!	!	!	!
.	.	1F	-em	1A	-em	1d,	-em	.
!	!	!LO:LB:g=original	!	!	!	!	!	!
=14-	=14-	=14-	=14-	=14-	=14-	=14-	=14-	=14-
2GG/	di-	1G	fes-	2B\	fes-	2d\	fes-	.
!	!	!	!	!	!	!LO:TX:t=P:problem:kreska pseudotaktowa	!	!
2C/	-em	.	.	2c\	.	2e\	.	.
2BB/	fes-	1G	-tum	2B\	.	2d\	.	.
!LO:TX:t=P:problem:kreska pseudotaktowa	!	!	!	!LO:TX:t=P:problem:kreska pseudotaktowa	!	!	!	!
2C/	-tu(m)	.	.	2E/	-tum	1c\	.	.
=15-	=15-	=15-	=15-	=15-	=15-	=15-	=15-	=15-
1D	fe-	1F	.	2F/	fes-	.	.	.
!	!	!	!	!	!	!LO:TX:t=P:problem:kreska pseudotaktowa	!	!
.	.	.	.	2D/	-tum	2B/	.	.
(2C/	-stum	1E	.	2E/	ce-	1c	-tum	.
!LO:TX:t=P:problem:kreska pseudotaktowa	!	!	!	!LO:TX:t=P:problem:kreska pseudotaktowa	!	!	!	!
2AA/),	.	.	.	2A/	-le-	.	.	.
=16-	=16-	=16-	=16-	=16-	=16-	=16-	=16-	=16-
!	!	!LO:TX:t=P:problem:kreska pseudotaktowa	!	!	!	!	!	!
2D/	ce-	1F	.	2.A/	-bran-	2r	.	.
!	!	!	!	!	!	!LO:TX:t=P:problem:kreska pseudotaktowa	!	!
2.D/	-le-	.	.	.	.	2A/	ce-	.
.	.	.	.	4G/	.	.	.	.
.	.	1D	ce-	4F/	.	2d\	-le-	.
4C/	.	.	.	4E/	.	.	.	.
4BB/	.	.	.	2D/	.	2.d\	-bran-	.
!LO:TX:t=P:problem:kreska pseudotaktowa	!	!	!	!	!	!	!	!
4AA/	.	.	.	.	.	.	.	.
=17-	=17-	=17-	=17-	=17-	=17-	=17-	=17-	=17-
!	!	!	!	!LO:TX:t=P:problem:kreska pseudotaktowa	!	!	!	!
2.GG/	-bran-	1G	.	1D	-tes	.	.	.
.	.	.	.	.	.	4c\	.	.
.	.	.	.	.	.	4B\	.	.
!	!	!	!	!	!	!LO:TX:t=P:problem:kreska pseudotaktowa	!	!
4AA/	.	.	.	.	.	4A\	.	.
!	!	!	!	!LO:LB:g=original	!	!	!	!
2BB/	.	1G	-le-	0r	.	2G/	.	.
!LO:TX:t=P:problem:kreska pseudotaktowa	!	!	!	!	!	!	!	!
2C/	.	.	.	.	.	1c	.	.
=18-	=18-	=18-	=18-	=18-	=18-	=18-	=18-	=18-
1D	.	1F	-bran-	.	.	.	.	.
.	.	.	.	.	.	2B\	.	.
!	!	!	!	!	!	!LO:TX:t=P:problem:kreska pseudotaktowa	!	!
2C/	.	1E	.	2E/	ce-	1c	-tes	.
!LO:TX:t=P:problem:kreska pseudotaktowa	!	!	!	!LO:TX:t=P:problem:kreska pseudotaktowa	!	!	!	!
2AA/	.	.	.	2A/	-le-	.	.	.
=19-	=19-	=19-	=19-	=19-	=19-	=19-	=19-	=19-
2D,/	-tes	1F	.	2.A/	-bran-	2r	.	.
!	!	!	!	!	!	!LO:TX:t=P:problem:kreska pseudotaktowa	!	!
2.D/	ce-	.	.	.	.	2A/	ce-	.
.	.	.	.	4G/	.	.	.	.
.	.	1D	.	4F/	.	2d\	-le-	.
4C/	.	.	.	4E/	.	.	.	.
!	!	!	!	!LO:TX:t=P:problem:kreska pseudotaktowa	!	!	!	!
4BB/	.	.	.	2D/	-tes	1d	-bran-	.
!LO:TX:t=P:problem:kreska pseudotaktowa	!	!	!	!	!	!	!	!
4AA/	.	.	.	.	.	.	.	.
*custos:GG	*	*	*	*	*	*	*	*
!LO:LB:g=original	!	!	!	!	!	!	!	!
=20-	=20-	=20-	=20-	=20-	=20-	=20-	=20-	=20-
4GG/	-le-	1G	.	2.D/	sub	.	.	.
4AA/	.	.	.	.	.	.	.	.
4BB/	.	.	.	.	.	4c\	.	.
!LO:TX:t=P:problem:kreska pseudotaktowa	!	!	!	!	!	!LO:TX:t=P:problem:kreska pseudotaktowa	!	!
4C/	.	.	.	4E/	.	4B\	.	.
!	!	!LO:TX:t=P:problem:kreska pseudotaktowa	!	!	!	!	!	!
1D	-bran-	1F	-tes	4F/	.	1A	.	.
.	.	.	.	4G/	.	.	.	.
.	.	.	.	2.A/	.	.	.	.
=21-	=21-	=21-	=21-	=21-	=21-	=21-	=21-	=21-
!LO:TX:t=P:problem:kreska pseudotaktowa	!	!	!	!	!	!	!	!
1D	-tes	1F,	sub	.	.	2A,/	-tes	.
.	.	.	.	4D/,	.	.	.	.
!	!	!	!	!	!	!LO:TX:t=P:problem:kreska pseudotaktowa	!	!
.	.	.	.	2.d\	ho-	2a\	sub	.
!	!	!	!	!	!	!LO:LB:g=original	!	!
0r	.	1G	ho-	.	.	2g\	ho-	.
.	.	.	.	4c\	.	.	.	.
.	.	.	.	1c\	-no-	4f\	.	.
.	.	.	.	.	.	4e\	.	.
=22-	=22-	=22-	=22-	=22-	=22-	=22-	=22-	=22-
.	.	1G	-no-	.	.	1d	-no-	.
!	!	!	!	!LO:TX:t=P:problem:kreska pseudotaktowa	!	!	!	!
.	.	.	.	2B\	.	.	.	.
!	!	!	!	!	!	!LO:TX:t=P:problem:kreska pseudotaktowa	!	!
2r	.	1A	.	2c,\	-re	1c	-re	.
!LO:TX:t=P:problem:kreska pseudotaktowa	!	!	!	!	!	!	!	!
2F\	sub	.	.	2A\	Be-	.	.	.
=23-	=23-	=23-	=23-	=23-	=23-	=23-	=23-	=23-
2E\	ho-	1c	.	2G\	-a-	2r	.	.
!	!	!	!	!LO:TX:t=P:problem:kreska pseudotaktowa	!	!	!	!
2C/	-no-	.	.	2E/	-tae	2g\	sub	.
2D/	.	1A	.	2F/	MA-	2f\	ho-	.
2E/	.	.	.	2G/	.	1e	-no-	.
=24-	=24-	=24-	=24-	=24-	=24-	=24-	=24-	=24-
!LO:TX:t=P:problem:kreska pseudotaktowa	!	!	!	!	!	!	!	!
1F	.	1A	.	2.A/	-RI-	.	.	.
!	!	!	!	!	!	!LO:TX:t=P:problem:kreska pseudotaktowa	!	!
.	.	.	.	.	.	2d\	.	.
!	!	!	!	!LO:TX:t=P:problem:kreska pseudotaktowa	!	!	!	!
.	.	.	.	4B\	-AE	.	.	.
!	!	!LO:TX:t=P:problem:kreska pseudotaktowa	!	!	!	!	!	!
2E,\	-re	1G	-re	2c,\	.	1e	-re	.
2E\	Be-	.	.	2B\	Be-	.	.	.
=25-	=25-	=25-	=25-	=25-	=25-	=25-	=25-	=25-
2.A\	-a-	1F	Be-	2A\	-a-	2.c/	Be-	.
!	!	!	!	!LO:TX:t=P:problem:kreska pseudotaktowa	!	!	!	!
.	.	.	.	2c\	-tae	.	.	.
4G\	.	.	.	.	.	4B/	.	.
4F\	.	1A	-a-	1c	MA-	2A/	-a-	.
4E\	.	.	.	.	.	.	.	.
1F\	-tae	.	.	.	.	1a	-tae	.
=26-	=26-	=26-	=26-	=26-	=26-	=26-	=26-	=26-
.	.	1A,	-tae	4d\	-RI-	.	.	.
.	.	.	.	4e\	.	.	.	.
!	!	!	!	!LO:TX:t=P:problem:kreska pseudotaktowa	!	!	!	!
4E\	MA-	.	.	2f\	.	4g\	MA-	.
!LO:TX:t=P:problem:kreska pseudotaktowa	!	!	!	!	!	!LO:TX:t=P:problem:kreska pseudotaktowa	!	!
4D\	.	.	.	.	.	4f\	.	.
!	!	!	!	!LO:LB:g=original	!	!	!	!
1E	-RI-	1c	MA-	1e	.	1g	-RI-	.
=27-	=27-	=27-	=27-	=27-	=27-	=27-	=27-	=27-
!LO:TX:t=P:problem:kreska pseudotaktowa	!	!	!	!LO:TX:t=P:problem:kreska pseudotaktowa	!	!	!	!
1D	-AE.	1d	-RI-	1A	-AE	2.f\	-AE	.
!	!	!	!	!	!	!LO:TX:t=P:problem:kreska pseudotaktowa	!	!
.	.	.	.	.	.	4e\	.	.
!	!	!LO:TX:t=P:problem:kreska pseudotaktowa	!	!	!	!	!	!
2.F\	Vir-	1A	-AE	1r	.	2c,\	.	.
.	.	.	.	.	.	1f	Ma-	.
4E\	.	.	.	.	.	.	.	.
*	*	*custos:A	*	*	*	*	*	*
!	!	!LO:LB:g=original	!	!	!	!	!	!
=28-	=28-	=28-	=28-	=28-	=28-	=28-	=28-	=28-
2D/	.	1A	Vir-	2r	.	.	.	.
!	!	!	!	!	!	!LO:TX:t=P:problem:kreska pseudotaktowa	!	!
2C/	.	.	.	1A	Vir-	2e\	.	.
!LO:N:acc=#	!	!	!	!	!	!	!	!
1BBn	.	1B	.	.	.	1d	-ri-	.
!	!	!	!	!LO:TX:t=P:problem:kreska pseudotaktowa	!	!	!	!
.	.	.	.	2G/	.	.	.	.
=29-	=29-	=29-	=29-	=29-	=29-	=29-	=29-	=29-
!	!	!	!	!	!	!LO:TX:t=P:problem:kreska pseudotaktowa	!	!
2.AA/	.	1c	.	2A/	.	2c,\	-ae	.
.	.	.	.	4G/	.	2.e\	Vir-	.
4BB/	.	.	.	4F/	.	.	.	.
2C/	.	1A	-gi-	2E/	.	.	.	.
.	.	.	.	.	.	4d\	.	.
!LO:TX:t=P:problem:kreska pseudotaktowa	!	!	!	!LO:TX:t=P:problem:kreska pseudotaktowa	!	!	!	!
2D/	.	.	.	2F/	.	1d	.	.
=30-	=30-	=30-	=30-	=30-	=30-	=30-	=30-	=30-
!	!	!LO:TX:t=P:problem:kreska pseudotaktowa	!	!	!	!	!	!
1AA	-gi-	1A	-nis	1E	-gi-	.	.	.
!	!	!	!	!	!	!LO:TX:t=P:problem:kreska pseudotaktowa	!	!
.	.	.	.	.	.	2c\	-gi-	.
!LO:TX:t=P:problem:kreska pseudotaktowa	!	!	!	!	!	!	!	!
1D,	-nis	1F	de	2D,/	-nis	2d,\	-nis	.
!	!	!	!	!LO:TX:t=P:problem:kreska pseudotaktowa	!	!	!	!
.	.	.	.	2A/	de	1f	de	.
!LO:LB:g=original	!	!	!	!	!	!	!	!
=31-	=31-	=31-	=31-	=31-	=31-	=31-	=31-	=31-
!	!	!LO:TX:t=P:problem:kreska pseudotaktowa	!	!	!	!	!	!
(1C	de	(>1G	.	2.c\	Cu-	.	.	.
.	.	.	.	.	.	2e\	Cu-	.
.	.	.	.	4B\	.	.	.	.
1D)	.	1F)	.	2A\	.	2d\	.	.
!	!	!	!	!LO:TX:t=P:problem:kreska pseudotaktowa	!	!	!	!
.	.	.	.	2B\	.	1f\	-jus	.
=32-	=32-	=32-	=32-	=32-	=32-	=32-	=32-	=32-
1C	cu-	(>1G	cu-	1c	.	.	.	.
!	!	!	!	!	!	!LO:TX:t=P:problem:kreska pseudotaktowa	!	!
.	.	.	.	.	.	2e\	.	.
!	!	!	!	!	!	!LO:TX:t=P:problem:kreska pseudotaktowa	!	!
!LO:TX:t=P:problem:kreska pseudotaktowa	!	!LO:TX:t=P:problem:kreska pseudotaktowa	!	!	!	!	!	!
1D	-jus	1F)	-jus	2A,\	-jus	1f	.	.
.	.	.	.	2.d\	cu-	.	.	.
*	*	*	*	*	*	*custos:f	*	*
!	!	!	!	!	!	!LO:LB:g=original	!	!
=33-	=33-	=33-	=33-	=33-	=33-	=33-	=33-	=33-
2.D/	Aſ-	1F	Aſ-	.	.	2.f\	Aſ-	.
.	.	.	.	4c\	.	.	.	.
!	!	!	!	!LO:TX:t=P:problem:kreska pseudotaktowa	!	!	!	!
.	.	.	.	2A\	.	.	.	.
4C/	.	.	.	.	.	4e\	-sum-	.
2BB-X/	-sum-	1F	-sum-	2B-X\	.	2d\	-pti-	.
!	!	!	!	!	!	!LO:TX:t=P:problem:kreska pseudotaktowa	!	!
2AA/	.	.	.	2c\	.	2c\	.	.
=34-	=34-	=34-	=34-	=34-	=34-	=34-	=34-	=34-
1GG	-pti-	1G	-pti-	1B-y	.	1d	-o-	.
!LO:TX:t=P:problem:kreska pseudotaktowa	!	!	!	!LO:TX:t=P:problem:kreska pseudotaktowa	!	!	!	!
1C	-o-	1G	-o-	1c	-jus	1e	.	.
=35-	=35-	=35-	=35-	=35-	=35-	=35-	=35-	=35-
!	!	!	!	!	!	!LO:TX:t=P:problem:kreska pseudotaktowa	!	!
!	!	!	!	!	!	!LO:TX:b:t=c	!	!
2FF,/	-ne	1A	.	2A\	Aſ-	1c	-ne	.
2F\	aſ-	.	.	2.c\	-sum-	.	.	.
2E\	-sum-	1c	.	.	.	2r	.	.
.	.	.	.	4d\	-pti-	.	.	.
2C/	-pti-	.	.	1e\	-o-	1g	de	.
=36-	=36-	=36-	=36-	=36-	=36-	=36-	=36-	=36-
*lig	*	*	*	*	*	*	*	*
1D	-o-	1A	.	.	.	.	.	.
*	*	*	*	*custos:d	*	*	*	*
!	!	!	!	!LO:LB:g=original	!	!LO:TX:t=P:problem:kreska pseudotaktowa	!	!
.	.	.	.	1d	.	2f\,	Cu-	.
1E	.	1G	.	.	.	2e\	.	.
*Xlig	*	*	*	*	*	*	*	*
!	!	!	!	!LO:TX:t=P:problem:kreska pseudotaktowa	!	!	!	!
.	.	.	.	2c\	.	1g	.	.
=37-	=37-	=37-	=37-	=37-	=37-	=37-	=37-	=37-
!LO:TX:t=P:problem:kreska pseudotaktowa	!	!	!	!	!	!	!	!
1D	-ne	1A	.	1d,	-ne	.	.	.
!	!	!	!	!	!	!LO:TX:t=P:problem:kreska pseudotaktowa	!	!
.	.	.	.	.	.	2f\,	-jus	.
!	!	!LO:TX:t=P:problem:kreska pseudotaktowa	!	!	!	!	!	!
2r	.	1G	-ne	2G/	gau-	2g\	Aſ-	.
2C/	gau-	.	.	1c\	.	2e\	-sum-	.
=38-	=38-	=38-	=38-	=38-	=38-	=38-	=38-	=38-
(1D	-dent	1F	gau-	.	.	1f	-pti-	.
!	!	!	!	!LO:TX:t=P:problem:kreska pseudotaktowa	!	!	!	!
.	.	.	.	2Bny\	-dent	.	.	.
!LO:TX:t=P:problem:kreska pseudotaktowa	!	!	!	!	!	!LO:TX:t=P:problem:kreska pseudotaktowa	!	!
1C)	.	1G	-dent	2.c\	An-	1e	-o-	.
.	.	.	.	4B\	.	.	.	.
=39-	=39-	=39-	=39-	=39-	=39-	=39-	=39-	=39-
!	!	!LO:TX:t=P:problem:kreska pseudotaktowa	!	!	!	!	!	!
2.D/	An-	1F	.	4A\	.	2d,/	-ne	.
.	.	.	.	4G\	.	.	.	.
.	.	.	.	4F/	.	1d	gau-	.
!	!	!	!	!LO:TX:t=P:problem:kreska pseudotaktowa	!	!	!	!
4C/	.	.	.	4E/	.	.	.	.
2BB-X/	.	1F	an-	4D/	.	.	.	.
.	.	.	.	4C/	.	.	.	.
!LO:TX:t=P:problem:kreska pseudotaktowa	!	!	!	!	!	!LO:TX:t=P:problem:kreska pseudotaktowa	!	!
2AA/	.	.	.	1F/	.	2c/	.	.
=40-	=40-	=40-	=40-	=40-	=40-	=40-	=40-	=40-
1GG	-ge-	1G	.	.	.	1B-X	.	.
.	.	.	.	2E/	-ge-	.	.	.
*	*	*custos:A	*	*	*	*	*	*
!	!	!LO:LB:g=original	!	!	!	!	!	!
2FF/	-li	1A	.	1F	-li	2A/	-dent	.
(1F	gau-	.	.	.	.	1c	An-	.
=41-	=41-	=41-	=41-	=41-	=41-	=41-	=41-	=41-
!	!	!	!	!LO:TX:t=P:problem:kreska pseudotaktowa	!	!	!	!
.	.	1G	.	1C	.	.	.	.
!LO:TX:t=P:problem:kreska pseudotaktowa	!	!	!	!	!	!	!	!
2E\)	.	.	.	.	.	2c/	-ge-	.
!	!	!	!	!	!	!LO:TX:t=P:problem:kreska pseudotaktowa	!	!
1F	-dent	1A	.	2r	.	1c	-li	.
.	.	.	.	1F/	gau-	.	.	.
=42-	=42-	=42-	=42-	=42-	=42-	=42-	=42-	=42-
*lig	*	*	*	*	*	*	*	*
1C	an-	1G	.	.	.	2r	.	.
*	*	*	*	*	*	*	*ij	*
.	.	.	.	2E/	-dent	1c	An-	.
1D	.	1F	.	1F	gau-	.	.	.
*Xlig	*	*	*	*	*	*	*	*
.	.	.	.	.	.	2Bny/	-ge-	.
=43-	=43-	=43-	=43-	=43-	=43-	=43-	=43-	=43-
!LO:TX:t=P:problem:kreska pseudotaktowa	!	!	!	!LO:TX:t=P:problem:kreska pseudotaktowa	!	!LO:TX:t=P:problem:kreska pseudotaktowa	!	!
1C	-ge-	1E	.	1G	-dent	0c	-li	.
*custos:FF	*	*	*	*	*	*	*Xij	*
!LO:LB:g=original	!	!	!	!	!	!	!	!
2FF/	-li	1F	.	2A/	An-	.	.	.
1F\	gau-	.	.	2F/	-ge-	.	.	.
=44-	=44-	=44-	=44-	=44-	=44-	=44-	=44-	=44-
!	!	!	!	!LO:TX:t=P:problem:kreska pseudotaktowa	!	!	!	!
.	.	1G	.	1C	-li	2r	.	.
!LO:TX:t=P:problem:kreska pseudotaktowa	!	!	!	!	!	!	!	!
2E\	.	.	.	.	.	2c/	gau-	.
1D	-dent	1F	.	2r	.	2d\	-dent	.
!	!	!	!	!	!	!LO:TX:t=P:problem:kreska pseudotaktowa	!	!
.	.	.	.	2D/	et	2e\	.	.
=45-	=45-	=45-	=45-	=45-	=45-	=45-	=45-	=45-
2C/	an-	1G	.	2E/	.	2e\	An-	.
!	!	!	!	!LO:TX:t=P:problem:kreska pseudotaktowa	!	!	!	!
2D/	.	.	.	2F/	col-	1d	-ge-	.
!LO:TX:t=P:problem:kreska pseudotaktowa	!	!	!	!	!	!	!	!
1E	-ge-	1G	-ge-	2.G/	-lau-	.	.	.
!	!	!	!	!	!	!LO:TX:t=P:problem:kreska pseudotaktowa	!	!
.	.	.	.	.	.	2c\	.	.
.	.	.	.	4A\	.	.	.	.
!	!	!	!	!	!	!LO:LB:g=original	!	!
=46-	=46-	=46-	=46-	=46-	=46-	=46-	=46-	=46-
!LO:TX:t=P:problem:kreska pseudotaktowa	!	!LO:TX:t=P:problem:kreska pseudotaktowa	!	!	!	!LO:TX:t=P:problem:kreska pseudotaktowa	!	!
0D	-li	1F	-li	2B-X\	.	1d	-li	.
.	.	.	.	4A\	.	.	.	.
!	!	!	!	!LO:TX:t=P:problem:kreska pseudotaktowa	!	!	!	!
.	.	.	.	4G\	.	.	.	.
!	!	!LO:TX:t=P:problem:kreska pseudotaktowa	!	!LO:LB:g=original	!	!	!	!
.	.	1F	et	2A\	.	1a	et	.
.	.	.	.	2.d\	.	.	.	.
=47-	=47-	=47-	=47-	=47-	=47-	=47-	=47-	=47-
0r	.	1G	col-	.	.	2g\	col-	.
.	.	.	.	4c\	.	.	.	.
.	.	.	.	1c	.	4f\	.	.
.	.	.	.	.	.	4e\	.	.
.	.	1G	-lau-	.	.	1d	-lau-	.
!	!	!	!	!LO:TX:t=P:problem:kreska pseudotaktowa	!	!	!	!
.	.	.	.	2Bny\	.	.	.	.
=48-	=48-	=48-	=48-	=48-	=48-	=48-	=48-	=48-
!	!	!	!	!	!	!LO:TX:t=P:problem:kreska pseudotaktowa	!	!
2r	.	1A	.	2c,\	-dant	1c	-dant	.
2F\	et	.	.	2A\	et	.	.	.
2E\	col-	1c	.	2G\	col-	2r	.	.
*	*	*	*	*	*	*	*ij	*
!LO:TX:t=P:problem:kreska pseudotaktowa	!	!	!	!LO:TX:t=P:problem:kreska pseudotaktowa	!	!LO:TX:t=P:problem:kreska pseudotaktowa	!	!
2C/	.	.	.	2E/	.	2g\	et	.
=49-	=49-	=49-	=49-	=49-	=49-	=49-	=49-	=49-
2D/	.	1A	.	2F/	-lau-	2f\	col-	.
2E/	-lau-	.	.	2G/	.	1e	-lau-	.
(1F	-dant	1A	.	2.A/	.	.	.	.
.	.	.	.	.	.	2d\	.	.
!	!	!	!	!LO:TX:t=P:problem:kreska pseudotaktowa	!	!	!	!
.	.	.	.	4B/	.	.	.	.
=50-	=50-	=50-	=50-	=50-	=50-	=50-	=50-	=50-
!LO:TX:t=P:problem:kreska pseudotaktowa	!	!LO:TX:t=P:problem:kreska pseudotaktowa	!	!	!	!LO:TX:t=P:problem:kreska pseudotaktowa	!	!
1E)	.	1G	-dant	2c\	.	1e	-dant	.
*	*	*	*	*	*	*	*Xij	*
.	.	.	.	2.B\	.	.	.	.
*	*	*lig	*	*	*	*	*	*
1D,	col-	1F	Fi-	.	.	2r	.	.
.	.	.	.	4A\	.	.	.	.
.	.	.	.	1d\	.	2f\	Fi-	.
=51-	=51-	=51-	=51-	=51-	=51-	=51-	=51-	=51-
1E	-lau-	1G	.	.	.	1e	-li-	.
*	*	*Xlig	*	*	*	*	*	*
!	!	!	!	!LO:TX:t=P:problem:kreska pseudotaktowa	!	!	!	!
.	.	.	.	2c\	.	.	.	.
!LO:TX:t=P:problem:kreska pseudotaktowa	!	!	!	!	!	!LO:TX:t=P:problem:kreska pseudotaktowa	!	!
1D	-dant	1F	.	2d,\	-dant	1f	-um	.
.	.	.	.	2.A/	Fi-	.	.	.
=52-	=52-	=52-	=52-	=52-	=52-	=52-	=52-	=52-
2.D/	Fi-	0F	.	.	.	1.d	De-	.
.	.	.	.	4G/	.	.	.	.
.	.	.	.	4F/	.	.	.	.
!	!	!	!	!LO:TX:t=P:problem:kreska pseudotaktowa	!	!	!	!
4C/	.	.	.	4E/	.	.	.	.
2BB-X/	.	.	.	4D/	.	.	.	.
.	.	.	.	4E/	.	.	.	.
!LO:TX:t=P:problem:kreska pseudotaktowa	!	!	!	!	!	!	!	!
2AA/	.	.	.	1F/	.	2c/	.	.
=53-	=53-	=53-	=53-	=53-	=53-	=53-	=53-	=53-
!	!	!	!	!	!	!LO:TX:t=P:problem:kreska pseudotaktowa	!	!
1GG	-li-	1G	.	.	.	1B-X	.	.
!	!	!	!	!LO:TX:t=P:problem:kreska pseudotaktowa	!	!	!	!
.	.	.	.	2E/	-li-	.	.	.
2FF/	-um	1A	.	2F/	-um	2A,/	-i	.
2.F\	Fi-	.	.	1A\	De-	2c/	et	.
=54-	=54-	=54-	=54-	=54-	=54-	=54-	=54-	=54-
!	!	!LO:TX:t=P:problem:kreska pseudotaktowa	!	!	!	!	!	!
.	.	1F	.	.	.	2d/	col-	.
4E\	-li-	.	.	.	.	.	.	.
!LO:TX:t=P:problem:kreska pseudotaktowa	!	!	!	!	!	!LO:TX:t=P:problem:kreska pseudotaktowa	!	!
2D\	-u(m)	.	.	2B\	.	[y2f\	-lau-	.
*	*	*cutos:G	*	*	*	*	*	*
!	!	!LO:LB:g=original	!	!	!	!LO:N:xstem:cue	!	!
1C	De-	1G	.	2.c\	.	4f]	.	.
.	.	.	.	.	.	4e\	.	.
.	.	.	.	.	.	2.e\	.	.
!	!	!	!	!LO:TX:t=P:problem:kreska pseudotaktowa	!	!	!	!
.	.	.	.	4B\	.	.	.	.
=55-	=55-	=55-	=55-	=55-	=55-	=55-	=55-	=55-
1D,	-i	1F	.	4A\	.	.	.	.
.	.	.	.	4G/	.	4d\	.	.
.	.	.	.	1A	.	1d	.	.
!	!	!LO:TX:t=P:problem:kreska pseudotaktowa	!	!	!	!	!	!
2E\	Fi-	1E	.	.	.	.	.	.
!LO:TX:t=P:problem:kreska pseudotaktowa	!	!	!	!	!	!LO:TX:t=P:problem:kreska pseudotaktowa	!	!
2G\	-li-	.	.	2G/	.	2c\	.	.
*custos:F	*	*	*	*	*	*	*	*
!LO:LB:g=original	!	!	!	!	!	!	!	!
=56-	=56-	=56-	=56-	=56-	=56-	=56-	=56-	=56-
!	!	!	!	!LO:TX:t=P:problem:kreska pseudotaktowa	!	!	!	!
1F,	-um	1D	-li-	1A	-i	2d\	-dant	.
.	.	.	.	.	.	2.d\	Fi-	.
!	!	!	!	!LO:PB:g=original	!	!	!	!
2.D/	De-	1F	-um	2r	.	.	.	.
.	.	.	.	.	.	4c\	.	.
.	.	.	.	1A\	Fi-	4A/	.	.
!LO:TX:t=P:problem:kreska pseudotaktowa	!	!	!	!	!	!	!	!
4C/	.	.	.	.	.	4Bny/	.	.
=57-	=57-	=57-	=57-	=57-	=57-	=57-	=57-	=57-
*	*	*lig	*	*	*	*	*	*
!	!	!	!	!	!	!LO:TX:t=P:problem:kreska pseudotaktowa	!	!
4AA/	.	1E	De-	.	.	1c	.	.
4BBny/	.	.	.	.	.	.	.	.
!	!	!	!	!LO:TX:t=P:problem:kreska pseudotaktowa	!	!	!	!
2C/	.	.	.	2G/	-li-	.	.	.
!	!	!	!	!	!	!LO:LB:g=original	!	!
1D	.	1F	.	2F/	-um	2.A/	.	.
*	*	*Xlig	*	*	*	*	*	*
.	.	.	.	1A\	De-	.	.	.
.	.	.	.	.	.	4B/	-li-	.
=58-	=58-	=58-	=58-	=58-	=58-	=58-	=58-	=58-
2AA/	.	0E	.	.	.	2c,/	-um	.
*	*	*	*	*	*	*	*ij	*
2BB-X/	.	.	.	2G/	.	1d	Fi-	.
!LO:TX:t=P:problem:kreska pseudotaktowa	!	!	!	!LO:TX:t=P:problem:kreska pseudotaktowa	!	!	!	!
1AA	-i	.	.	1A	-i	.	.	.
!	!	!	!	!	!	!LO:TX:t=P:problem:kreska pseudotaktowa	!	!
.	.	.	.	.	.	2c\	.	.
=59-	=59-	=59-	=59-	=59-	=59-	=59-	=59-	=59-
2r	.	00.D;	-i	2r	.	2d\	-li-	.
2D/	Fi-	.	.	2F/	Fi-	2A/	-um	.
*	*	*	*	*	*	*	*Xij	*
2D/	-li-	.	.	2D/	-li-	2B-X/	De-	.
!	!	!	!	!LO:TX:t=P:problem:kreska pseudotaktowa	!	!	!	!
2D/	-u(m)	.	.	2F/	-um	2A/	.	.
=60-	=60-	=60-	=60-	=60-	=60-	=60-	=60-	=60-
2.GG/	De-	.	.	0G	De-	0B-y	.	.
!LO:TX:t=P:problem:kreska pseudotaktowa	!	!	!	!	!	!	!	!
4AA/	.	.	.	.	.	.	.	.
2BB-y/	.	.	.	.	.	.	.	.
2GG/	.	.	.	.	.	.	.	.
=61-	=61-	=61-	=61-	=61-	=61-	=61-	=61-	=61-
0D;	-i.	.	.	0F;	-i	0A;	-i.	.
!LO:PB:g=original	!	!	!	!	!	!LO:PB:g=original	!	!
=62-	=62-	=62-	=62-	=62-	=62-	=62-	=62-	=62-
*M4/2	*	*M4/2	*	*M4/2	*	*M4/2	*	*
*met(C|)	*	*met(C|)	*	*met(C|)	*	*met(C|)	*	*
1F	E-	1F	E-	1c	E-	1f	E-	.
!LO:TX:t=P:problem:kreska pseudotaktowa	!	!	!	!	!	!	!	!
1C	-ru-	1G	-ru-	2.c\	-ru-	1e	-ru-	.
!	!	!	!	!LO:TX:t=P:problem:kreska pseudotaktowa	!	!	!	!
.	.	.	.	4B\	.	.	.	.
=63-	=63-	=63-	=63-	=63-	=63-	=63-	=63-	=63-
!	!	!	!	!	!	!LO:TX:t=P:problem:kreska pseudotaktowa	!	!
2.F\	-cta-	1A	-cta-	4A/	.	1c	-cta-	.
.	.	.	.	4G/	.	.	.	.
!	!	!	!	!LO:TX:t=P:problem:kreska pseudotaktowa	!	!	!	!
.	.	.	.	2F/	.	.	.	.
4E\	.	.	.	.	.	.	.	.
2D\	-vit	2A,\	-vit	2f\	-cta-	2d\	.	.
!LO:TX:t=P:problem:kreska pseudotaktowa	!	!LO:TX:t=P:problem:kreska pseudotaktowa	!	!	!	!	!	!
2C,/	.	2A\	cor	2e,\	-vit	2e\	.	.
=64-	=64-	=64-	=64-	=64-	=64-	=64-	=64-	=64-
!	!	!	!	!LO:TX:t=P:problem:kreska pseudotaktowa	!	!	!	!
2D,/	cor	2A\	me-	1d	cor	2f\	-vit	.
!	!	!	!	!	!	!LO:TX:t=P:problem:kreska pseudotaktowa	!	!
2D/	me-	2A\	-um	.	.	2f\	cor	.
0AA	-um	1A	.	2.c\	me-	1e	me-	.
.	.	.	.	4B\	.	.	.	.
=65-	=65-	=65-	=65-	=65-	=65-	=65-	=65-	=65-
!LO:TX:t=P:problem:kreska pseudotaktowa	!	!	!	!	!	!	!	!
.	.	1c	ver-	2.A/	.	1e,	-u(m)	.
!	!	!	!	!LO:TX:t=P:problem:kreska pseudotaktowa	!	!	!	!
.	.	.	.	4G/	.	.	.	.
!	!	!LO:TX:a:t=3	!	!	!	!	!	!
1D	ver-	0.A	-bum	1F	.	2.f\	ver-	.
.	.	.	.	.	.	4e\	.	.
=66-	=66-	=66-	=66-	=66-	=66-	=66-	=66-	=66-
!	!	!LO:TX:t=P:problem:kreska pseudotaktowa	!	!	!	!	!	!
2.F\	.	.	.	2F,/	-um	2d\	.	.
!	!	!	!	!	!	!LO:TX:t=P:problem:kreska pseudotaktowa	!	!
.	.	.	.	1f	ver-	2c\	-bum	.
!LO:TX:t=P:problem:kreska pseudotaktowa	!	!	!	!	!	!	!	!
4E\	.	.	.	.	.	.	.	.
2D\	-bum	.	.	.	.	2d\	bo-	.
!	!	!	!	!LO:TX:t=P:problem:kreska pseudotaktowa	!	!	!	!
2C,\	.	.	.	2e\	-bum	2e\	.	.
!	!	!	!	!LO:LB:g=original	!	!	!	!
=67-	=67-	=67-	=67-	=67-	=67-	=67-	=67-	=67-
!LO:TX:t=P:problem:kreska pseudotaktowa	!	!	!	!	!	!	!	!
1D	bo-	1A	bo-	2.d\	bo-	4f\	.	.
.	.	.	.	.	.	4d\	.	.
.	.	.	.	.	.	4e\	.	.
!	!	!	!	!	!	!LO:TX:t=P:problem:kreska pseudotaktowa	!	!
.	.	.	.	4c\	.	4f\	.	.
2E\	.	1G	.	2B\	.	2.g\	.	.
!	!	!	!	!LO:TX:t=P:problem:kreska pseudotaktowa	!	!	!	!
4D\	.	.	.	2c\	.	.	.	.
4C\	.	.	.	.	.	8f\L	.	.
.	.	.	.	.	.	8e\J	.	.
=68-	=68-	=68-	=68-	=68-	=68-	=68-	=68-	=68-
1BB	.	1G	-num	2d\	.	2d\	.	.
!	!	!	!	!	!	!LO:TX:t=P:problem:kreska pseudotaktowa	!	!
.	.	.	.	2D/	.	2d\	-num	.
!LO:TX:t=P:problem:kreska pseudotaktowa	!	!LO:TX:t=P:problem:kreska pseudotaktowa	!	!LO:TX:t=P:problem:kreska pseudotaktowa	!	!	!	!
1AA	-num	1A	.	1E	-num	2c\	di-	.
.	.	.	.	.	.	2c,\	-co	.
=69-	=69-	=69-	=69-	=69-	=69-	=69-	=69-	=69-
2r	.	1G	di-	2r	.	2d\	e-	.
2C/	di-	.	.	2E/	di-	2e\	.	.
!	!	!	!	!	!	!LO:TX:t=P:problem:kreska pseudotaktowa	!	!
2D/	-co	1F	.	2F/	-co	1d	-go	.
!	!	!	!	!LO:TX:t=P:problem:kreska pseudotaktowa	!	!	!	!
1F\	e-	.	.	2D/	e-	.	.	.
!	!	!LO:LB:g=original	!	!	!	!	!	!
=70-	=70-	=70-	=70-	=70-	=70-	=70-	=70-	=70-
.	.	1G	-co	2C/	-go	2r	.	.
!LO:TX:t=P:problem:kreska pseudotaktowa	!	!	!	!	!	!	!	!
2E\	-go	.	.	2c\	di-	2c\	di-	.
!	!	!LO:TX:t=P:problem:kreska pseudotaktowa	!	!	!	!	!	!
1.D	di-	1A	.	2A,\	-co	2d\	-co	.
.	.	.	.	1d\	e-	1f	e-	.
=71-	=71-	=71-	=71-	=71-	=71-	=71-	=71-	=71-
!	!	!LO:N:vis=0.	!	!	!	!	!	!
.	.	0A	e-	.	.	.	.	.
!LO:TX:t=P:problem:kreska pseudotaktowa	!	!	!	!LO:TX:t=P:problem:kreska pseudotaktowa	!	!LO:TX:t=P:problem:kreska pseudotaktowa	!	!
2C\	-co	.	.	2e\	.	2e\	-ge	.
!	!	!	!	!	!	!LO:LB:g=original	!	!
1D	e-	.	.	1f	.	1d	o-	.
=72-	=72-	=72-	=72-	=72-	=72-	=72-	=72-	=72-
!	!	!	!	!LO:TX:t=P:problem:kreska pseudotaktowa	!	!	!	!
2AA/	-go	1A	-go	1e	-go	2c\	-pe-	.
1A	o-	.	.	.	.	4c\	-ra	.
!	!	!	!	!	!	!LO:TX:t=P:problem:kreska pseudotaktowa	!	!
.	.	.	.	.	.	4d\	.	.
.	.	1B	o-	2r	.	4e\	.	.
.	.	.	.	.	.	4f\	.	.
!LO:TX:t=P:problem:kreska pseudotaktowa	!	!	!	!LO:TX:t=P:problem:kreska pseudotaktowa	!	!	!	!
2G\	.	.	.	2d\	o-	2g\	.	.
=73-	=73-	=73-	=73-	=73-	=73-	=73-	=73-	=73-
2F\	.	1c	-pe-	2A/	.	2a\	.	.
!LO:TX:t=P:problem:kreska pseudotaktowa	!	!	!	!	!	!	!	!
2E\	.	.	.	2.e\	-pe-	2g,\	.	.
!LO:LB:g=original	!	!	!	!	!	!LO:TX:t=P:problem:kreska pseudotaktowa	!	!
2F\	-pe-	1A,	-ra	.	.	1f	me-	.
.	.	.	.	4d\	-ra	.	.	.
2D,\	-ra	.	.	1d\	me-	.	.	.
=74-	=74-	=74-	=74-	=74-	=74-	=74-	=74-	=74-
1E	me-	1G	me-	.	.	4e\	.	.
.	.	.	.	.	.	4f\	.	.
!	!	!	!	!LO:TX:t=P:problem:kreska pseudotaktowa	!	!	!	!
.	.	.	.	2c\	-a	4g\	.	.
.	.	.	.	.	.	4e\	.	.
!LO:TX:t=P:problem:kreska pseudotaktowa	!	!	!	!	!	!	!	!
1D	-a	1F,	-ae	2d\	Re-	2f\	.	.
.	.	.	.	2A/	.	4e\	.	.
!	!	!	!	!	!	!LO:TX:t=P:problem:kreska pseudotaktowa	!	!
.	.	.	.	.	.	4d\	.	.
=75-	=75-	=75-	=75-	=75-	=75-	=75-	=75-	=75-
0AA	Re-	1F	Re-	0A	.	2c\	-a	.
.	.	.	.	.	.	1d	Re-	.
.	.	1E	.	.	.	.	.	.
.	.	.	.	.	.	2c\	.	.
=76-	=76-	=76-	=76-	=76-	=76-	=76-	=76-	=76-
!	!	!LO:TX:t=P:problem:kreska pseudotaktowa	!	!	!	!	!	!
00D;	-gi.	00D;	-gi	00A;	-gi	00d;	-gi	.
!	!	!LO:PB:g=original	!	!LO:LB:g=original	!	!	!	!
=77||	=77-	=77-	=77-	=77-	=77-	=77-	=77-	=77-
*M4/2	*	*M4/2	*	*M4/2	*	*M2/2	*	*
*met(C|)	*	*met(C|)	*	*met(C|)	*	*met(C|)	*	*
1F	Glo-	1F	Glo-	1c	Glo-	0r	.	.
2E\	-ri-	1G	.	2c\	-ri-	.	.	.
2C\	-a	.	.	2e\	-a	.	.	.
=78-	=78-	=78-	=78-	=78-	=78-	=78-	=78-	=78-
1D	Pa-	1A	-ri-	1d	Pa-	1f	Glo-	.
!LO:TX:t=P:problem:kreska pseudotaktowa	!	!LO:TX:t=P:problem:kreska pseudotaktowa	!	!	!	!	!	!
1AA	-tri	1A,	-a	4c\	.	2e\	-ri-	.
.	.	.	.	4B\	.	.	.	.
.	.	.	.	4A\	.	2c\	-a	.
!	!	!	!	!LO:TX:t=P:problem:kreska pseudotaktowa	!	!	!	!
.	.	.	.	4G\	.	.	.	.
=79-	=79-	=79-	=79-	=79-	=79-	=79-	=79-	=79-
1D	Pa-	1A	Pa-	1F	.	1d	Pa-	.
!LO:TX:t=P:problem:kreska pseudotaktowa	!	!LO:TX:t=P:problem:kreska pseudotaktowa	!	!	!	!	!	!
1AA	-tri	1A,	-tri	1E,	-tri	1c,	-tri	.
=80-	=80-	=80-	=80-	=80-	=80-	=80-	=80-	=80-
!	!	!	!	!	!	!LO:TX:t=P:problem:kreska pseudotaktowa	!	!
1AA,	et	1A,	et	1E,	et	1c	et	.
1.D	Fi-	1A	Fi-	1.F	Fi-	1.d	Fi-	.
=81-	=81-	=81-	=81-	=81-	=81-	=81-	=81-	=81-
.	.	1A	-li-	.	.	.	.	.
2D\	-li-	.	.	2F/	-li-	2d\	-li-	.
!	!	!LO:TX:t=P:problem:kreska pseudotaktowa	!	!	!	!	!	!
2AA,/	-o	1A,	-o	2E,/	-o	2c\	-o	.
!	!	!	!	!	!	!LO:LB:g=original	!	!
2D/	et	.	.	2D,/	et	2f\	et	.
=82-	=82-	=82-	=82-	=82-	=82-	=82-	=82-	=82-
2C/	Spi-	1A,	et	2E/	Spi-	2e\	spi-	.
!	!	!	!	!	!	!LO:TX:t=P:problem:kreska pseudotaktowa	!	!
2.F\	-ri-	.	.	4D/	-ri-	[y2a\	-ri-	.
.	.	.	.	4E/	.	.	.	.
!	!	!	!	!	!	!LO:N:xstem:cue	!	!
.	.	1A	Spi-	4F/	.	4a\]	.	.
4E\	.	.	.	4G/	.	4g\	.	.
2D\	.	.	.	4A/	.	2f\	.	.
.	.	.	.	4B/	.	.	.	.
=83-	=83-	=83-	=83-	=83-	=83-	=83-	=83-	=83-
2C\	.	1A	-ri-	2c\	.	2e\	.	.
2D\	.	.	.	1A	.	2.f\	.	.
2.AA/	.	1c	.	.	.	.	.	.
.	.	.	.	.	.	4e\	.	.
.	.	.	.	4G/	.	2.e\	.	.
4BB/	.	.	.	4F/	.	.	.	.
=84-	=84-	=84-	=84-	=84-	=84-	=84-	=84-	=84-
2C/	.	1A	-tu-	2E/	-tu-	.	.	.
.	.	.	.	.	.	4d\	.	.
2D/	.	.	.	2F/	-i	1d	.	.
!	!	!LO:TX:t=P:problem:kreska pseudotaktowa	!	!	!	!	!	!
1AA	-tu-	1A,	-i	1E	San-	.	.	.
.	.	.	.	.	.	2c\	-tu-	.
=85-	=85-	=85-	=85-	=85-	=85-	=85-	=85-	=85-
!LO:TX:t=P:problem:kreska pseudotaktowa	!	!	!	!LO:TX:t=P:problem:kreska pseudotaktowa	!	!LO:TX:t=P:problem:kreska pseudotaktowa	!	!
1D	-i	1A	San-	1F	-cto	1d	-i	.
*custos:E	*	*	*	*	*	*	*	*
!LO:LB:g=original	!	!	!	!	!	!	!	!
2E\	San-	1G	.	2r	.	2g\	San-	.
4D\	.	.	.	2C/	San-	4f\	.	.
4C\	.	.	.	.	.	4e\	.	.
!	!	!	!	!LO:LB:g=original	!	!	!	!
=86-	=86-	=86-	=86-	=86-	=86-	=86-	=86-	=86-
!	!	!	!	!	!	!LO:TX:t=P:problem:kreska pseudotaktowa	!	!
1BB	.	1G	-cto	1D	.	1d	.	.
!LO:TX:t=P:problem:kreska pseudotaktowa	!	!LO:TX:t=P:problem:kreska pseudotaktowa	!	!LO:TX:t=P:problem:kreska pseudotaktowa	!	!	!	!
1AA	-cto	1A	.	1E	-cto	2c,\	-cto	.
.	.	.	.	.	.	2c\	si-	.
=87-	=87-	=87-	=87-	=87-	=87-	=87-	=87-	=87-
2r	.	1G	Si-	2r	.	2d\	-cut	.
2E\	si-	.	.	2C/	si-	2e\	e-	.
!	!	!	!	!	!	!LO:TX:t=P:problem:kreska pseudotaktowa	!	!
2F\	-cut	1F	.	2D/	-cut	1d	-rat	.
2D\	e-	.	.	1F	e-	.	.	.
=88-	=88-	=88-	=88-	=88-	=88-	=88-	=88-	=88-
!LO:TX:t=P:problem:kreska pseudotaktowa	!	!	!	!	!	!	!	!
1C	-rat,	1G	-cut	.	.	2r	.	.
!	!	!	!	!LO:TX:t=P:problem:kreska pseudotaktowa	!	!	!	!
.	.	.	.	2E/	-rat	2e\	si-	.
!	!	!LO:TX:t=P:problem:kreska pseudotaktowa	!	!	!	!	!	!
2r	.	1A	.	2D,/	.	2f\	-cut	.
!	!	!	!	!	!	!LO:TX:t=P:problem:kreska pseudotaktowa	!	!
2D/	si-	.	.	2F/	si-	2d\	e-	.
!	!	!LO:LB:g=original	!	!	!	!	!	!
=89-	=89-	=89-	=89-	=89-	=89-	=89-	=89-	=89-
2.AA/	-cut	1A	e-	2E/	-cut	2c\	-rat	.
.	.	.	.	2.A/	e-	2.e\	e-	.
4BB/	.	.	.	.	.	.	.	.
2C/	e-	1A	-rat	.	.	.	.	.
.	.	.	.	4G/	.	4d\	.	.
2D/	.	.	.	2F/	.	1d	.	.
=90-	=90-	=90-	=90-	=90-	=90-	=90-	=90-	=90-
!LO:TX:t=P:problem:kreska pseudotaktowa	!	!	!	!LO:TX:t=P:problem:kreska pseudotaktowa	!	!	!	!
1AA	-rat	1A	in	1E	.	.	.	.
.	.	.	.	.	.	2c\	.	.
2r	.	1A	prin-	2D/	-rat	2d\	-rat	.
!	!	!	!	!	!	!LO:LB:g=original	!	!
1AA,	in	.	.	1E	in	1c\	in	.
=91-	=91-	=91-	=91-	=91-	=91-	=91-	=91-	=91-
.	.	1A	-ci-	.	.	.	.	.
!	!	!	!	!LO:TX:t=P:problem:kreska pseudotaktowa	!	!	!	!
2AA/	prin-	.	.	2E/	prin-	2c/	prin-	.
2AA/	-ci-	1A	-pi-	2E/	-ci-	2c/	-ci-	.
!LO:TX:t=P:problem:kreska pseudotaktowa	!	!	!	!	!	!	!	!
2AA/	-pi-	.	.	2E/	-pi-	2c/	-pi-	.
=92-	=92-	=92-	=92-	=92-	=92-	=92-	=92-	=92-
!	!	!LO:TX:t=P:problem:kreska pseudotaktowa	!	!	!	!	!	!
2D\	-o	1A	-o	2F,/	-o	1d	-o	.
2.F\	et	.	.	2.A/	et	.	.	.
!	!	!	!	!	!	!LO:TX:t=P:problem:kreska pseudotaktowa	!	!
.	.	1A	et	.	.	1f	et	.
4E\	.	.	.	4G/	.	.	.	.
4D\	.	.	.	4F/	.	.	.	.
!	!	!	!	!LO:TX:t=P:problem:kreska pseudotaktowa	!	!	!	!
4C\	.	.	.	4E/	.	.	.	.
=93-	=93-	=93-	=93-	=93-	=93-	=93-	=93-	=93-
1D,	nunc	1A	nunc	1F	.	2f\	.	.
.	.	.	.	.	.	4e\	nunc	.
.	.	.	.	.	.	4d\	.	.
1C,	et	1c	.	2G/	.	2e\	et	.
.	.	.	.	2E,/	.	2g\	.	.
=94-	=94-	=94-	=94-	=94-	=94-	=94-	=94-	=94-
2D/	sem-	1A	et	2F,/	nunc	2f\	sem-	.
!LO:TX:t=P:problem:kreska pseudotaktowa	!	!	!	!LO:TX:t=P:problem:kreska pseudotaktowa	!	!	!	!
2E\	.	.	.	2G/	et	1e	.	.
*	*	*	*	*custos:A	*	*	*	*
!	!	!	!	!LO:LB:g=original	!	!	!	!
2.F\	.	1A	sem-	4A/	sem-	.	.	.
.	.	.	.	4F/	.	.	.	.
!	!	!	!	!	!	!LO:TX:t=P:problem:kreska pseudotaktowa	!	!
.	.	.	.	2f\	.	2d\	.	.
4E\	.	.	.	.	.	.	.	.
=95-	=95-	=95-	=95-	=95-	=95-	=95-	=95-	=95-
2C/	.	1G	.	2e\	.	2e\	-per	.
2D/	.	.	.	1d	.	2f\	et	.
1E	.	1G	-per	.	.	1g	.	.
!	!	!	!	!LO:TX:t=P:problem:kreska pseudotaktowa	!	!	!	!
.	.	.	.	2c\	.	.	.	.
=96-	=96-	=96-	=96-	=96-	=96-	=96-	=96-	=96-
!LO:TX:t=P:problem:kreska pseudotaktowa	!	!LO:TX:t=P:problem:kreska pseudotaktowa	!	!	!	!	!	!
1D	-per	1A	.	1d,	-per	1f	sem-	.
!LO:LB:g=original	!	!	!	!	!	!LO:TX:t=P:problem:kreska pseudotaktowa	!	!
2r	.	1G	et	1B	et	1d	-per	.
2GG/	et	.	.	.	.	.	.	.
=97-	=97-	=97-	=97-	=97-	=97-	=97-	=97-	=97-
!	!	!	!	!LO:TX:t=P:problem:kreska pseudotaktowa	!	!	!	!
1D	in	1F,	[[in]]	1A	in	2.d\	et	.
.	.	.	.	.	.	4c\	.	.
2.E/	sae-	1G	in	2.G/	sae-	2Bny/	in	.
.	.	.	.	.	.	2.e\	sae-	.
4D/	.	.	.	4F/	.	.	.	.
=98-	=98-	=98-	=98-	=98-	=98-	=98-	=98-	=98-
!	!	!LO:TX:t=P:problem:kreska pseudotaktowa	!	!	!	!	!	!
2C/	-cu-	1A,	.	2E/	.	.	.	.
.	.	.	.	.	.	4d\	.	.
!	!	!	!	!LO:TX:t=P:problem:kreska pseudotaktowa	!	!	!	!
2D/	-la	.	.	2F/	.	1d	.	.
!LO:TX:t=P:problem:kreska pseudotaktowa	!	!	!	!	!	!	!	!
1AA	.	1A	Sae-	1E	-cu-	.	.	.
.	.	.	.	.	.	2c\	-cu-	.
=99-	=99-	=99-	=99-	=99-	=99-	=99-	=99-	=99-
2r	.	1A	-cu-	2D/	-la	2d\	-la	.
!	!	!	!	!LO:TX:t=P:problem:kreska pseudotaktowa	!	!LO:TX:t=P:problem:kreska pseudotaktowa	!	!
2D/	sae-	.	.	2d\	sae-	2f\	sae-	.
2C/	-cu-	1A,	-la	2e\	-cu-	2e\	-cu-	.
2D/	-lo-	.	.	2f\	-lo-	2d\	-lo-	.
!	!	!	!	!	!	!LO:LB:g=original	!	!
=100-	=100-	=100-	=100-	=100-	=100-	=100-	=100-	=100-
!	!	!LO:TX:t=P:problem:kreska pseudotaktowa	!	!	!	!	!	!
2AA/	-rum	1A	sae-	2e\	-rum	2c\	-rum	.
2D/	a-	.	.	1d	sae-	2f\	a-	.
!LO:TX:t=P:problem:kreska pseudotaktowa	!	!	!	!	!	!	!	!
1AA	-men	1A	-cu-	.	.	1e	.	.
.	.	.	.	2c\	-cu-	.	.	.
=101-	=101-	=101-	=101-	=101-	=101-	=101-	=101-	=101-
!LO:TX:t=P:problem:kreska pseudotaktowa	!	!	!	!	!	!	!	!
1r	.	1B	-lo-	2d\	-lo-	2d\	-men	.
!	!	!	!	!	!	!LO:TX:t=P:problem:kreska pseudotaktowa	!	!
.	.	.	.	2G,/	-rum	2g\	.	.
2.AA/	sae-	1c	.	4A\	a-	2.e\	a-	.
.	.	.	.	4B\	.	.	.	.
.	.	.	.	4c\	.	.	.	.
4BB/	-cu-	.	.	4d\	.	4d\	.	.
=102-	=102-	=102-	=102-	=102-	=102-	=102-	=102-	=102-
2C/	-lo-	1A	.	2e\	.	2c\	.	.
2D/	-ru(m)	.	.	1d	.	2f\	.	.
!	!	!LO:LB:g=original	!	!	!	!	!	!
1E	a-	1G	-rum	.	.	2g\	.	.
!	!	!	!	!LO:TX:t=P:problem:kreska pseudotaktowa	!	!	!	!
.	.	.	.	2c\	.	2e\	.	.
!	!	!	!	!LO:LB:g=original	!	!	!	!
=103-	=103-	=103-	=103-	=103-	=103-	=103-	=103-	=103-
!	!	!LO:TX:t=P:problem:kreska pseudotaktowa	!	!	!	!	!	!
2D/	.	1F	.	2d\	.	2.f\	.	.
4C/	.	.	.	2A\	-men	.	.	.
4BB/	.	.	.	.	.	8e\L	.	.
.	.	.	.	.	.	8d\J	.	.
!LO:TX:t=P:problem:kreska pseudotaktowa	!	!	!	!	!	!	!	!
0AA	.	1F	a-	0A	a-	2c/	.	.
.	.	.	.	.	.	1d	.	.
=104-	=104-	=104-	=104-	=104-	=104-	=104-	=104-	=104-
.	.	1E	.	.	.	.	.	.
.	.	.	.	.	.	2c\	.	.
00D;	-men.	00D;	-men.	00A;	-men.	00d;	-men.	.
==	==	==	==	==	==	==	==	==
*-	*-	*-	*-	*-	*-	*-	*-	*-
!!!system-decoration: [(s1,s2,s3,s4)]
!!!RDF**kern: i = editorial accidental
!!!RDF**kern: > = above
!!!RDF**kern: < = below
!!!RDF**kern: N = linked
!!!RDF**kern: | = vertical stroke
!!!ENC: Andrzej Gręziak
!!!EED: Katarzyna Serwa
!!!END: 2024-04-11
!!!EEV: 2024-05-12
